X: 032157
T: Century (The)
C: Joe Liddy
S: "The Leitrim Fiddler" (Dublin 1981)
Z: BB
L: 1/8
M: 4/4
R: reel
Q: 1/4 = 170
K: Ador
AB | cAAB cAeA | cAec dBGB | cAGA cdef | gedc d2 ed |
cAAB cAeA | BAGA cdeg | agec dged | c2 BG A2 :|
zg |a2 ed cdef | g2 gf gefg | aged cAcd | efge d3e |
aged cAGB | ABcd efge | agec dged | c2 BG A2 ||
AB | cdcB cdef | gage dBGB | ABcB cdef | gabg a2 bg |
agec dfed | c2 AB cdef | ga (3bag efed | cdBG A4 ||
%%%%%%%%%%%%%%
